X: 43
T:Donegal Highland
R:highland
D:Altan: Island Angel
Z:Devin McCabe
M:C|
L:1/8
K:EMin
A|BEBE cBcA|BEBd cAFA|BEBE cBcB|1Addc BGGA:|2Addc BG B/2c/2d||
!g2 fg B/2B/2B BA|GBag fdef|g2 fg B/2B/2B BA|GBdc BG B/2c/2d|
!g2 fg B/2B/2B BA|GBag fdcA|GBdB cdef|gb a/2g/2f g3A|
